src/assets/curso/temas/tema_5/img_12.svg

<svg height="49.226" viewBox="0 0 49.226 49.226" width="49.226" xmlns="http://www.w3.org/2000/svg"><g transform="translate(-303.526 -3276.302)"><g fill="#73964a" stroke="#ffce79" stroke-linejoin="round" stroke-width="3"><circle cx="328.139" cy="3300.915" r="21.613" stroke="none"/><circle cx="328.139" cy="3300.915" fill="none" r="23.113"/></g><path d="m3.454 11.477h1.354a1.907 1.907 0 0 0 1.433-.483 1.771 1.771 0 0 0 .465-1.284 1.566 1.566 0 0 0 -.461-1.2 1.788 1.788 0 0 0 -1.27-.431 1.874 1.874 0 0 0 -1.222.4 1.279 1.279 0 0 0 -.492 1.042h-2.54a3.124 3.124 0 0 1 .541-1.8 3.6 3.6 0 0 1 1.511-1.245 5.045 5.045 0 0 1 2.14-.448 4.785 4.785 0 0 1 3.182.972 3.314 3.314 0 0 1 1.151 2.675 2.693 2.693 0 0 1 -.536 1.617 3.483 3.483 0 0 1 -1.41 1.134 3.18 3.18 0 0 1 1.613 1.16 3.147 3.147 0 0 1 .532 1.828 3.369 3.369 0 0 1 -1.245 2.733 5 5 0 0 1 -3.292 1.028 4.741 4.741 0 0 1 -3.128-1.01 3.3 3.3 0 0 1 -1.217-2.672h2.537a1.472 1.472 0 0 0 .541 1.178 1.992 1.992 0 0 0 1.332.457 2 2 0 0 0 1.419-.479 1.654 1.654 0 0 0 .514-1.27q0-1.916-2.109-1.916h-1.343z" fill="#fff" transform="translate(322.196 3289.915)"/></g></svg>

<svg xmlns="http://www.w3.org/2000/svg" width="49.226" height="49.226" viewBox="0 0 49.226 49.226">
  <g id="Grupo_1127833" data-name="Grupo 1127833" transform="translate(-3742.836 8339.311)">
    <g id="Grupo_1127402" data-name="Grupo 1127402" transform="translate(3439.31 -11615.613)">
      <g id="Grupo_1106486" data-name="Grupo 1106486" transform="translate(306.526 3279.302)">
        <g id="Elipse_157" data-name="Elipse 157" transform="translate(0 0)" fill="#73964a" stroke="#ffce79" stroke-linejoin="round" stroke-width="3">
          <circle cx="21.613" cy="21.613" r="21.613" stroke="none"/>
          <circle cx="21.613" cy="21.613" r="23.113" fill="none"/>
        </g>
      </g>
      <path id="Trazado_919701" data-name="Trazado 919701" d="M3.454,11.477H4.808a1.907,1.907,0,0,0,1.433-.483A1.771,1.771,0,0,0,6.706,9.71a1.566,1.566,0,0,0-.461-1.2,1.788,1.788,0,0,0-1.27-.431,1.874,1.874,0,0,0-1.222.4,1.279,1.279,0,0,0-.492,1.042H.721a3.124,3.124,0,0,1,.541-1.8A3.6,3.6,0,0,1,2.773,6.476a5.045,5.045,0,0,1,2.14-.448A4.785,4.785,0,0,1,8.095,7,3.314,3.314,0,0,1,9.246,9.675a2.693,2.693,0,0,1-.536,1.617A3.483,3.483,0,0,1,7.3,12.426a3.18,3.18,0,0,1,1.613,1.16,3.147,3.147,0,0,1,.532,1.828A3.369,3.369,0,0,1,8.2,18.147a5,5,0,0,1-3.292,1.028A4.741,4.741,0,0,1,1.78,18.165,3.3,3.3,0,0,1,.563,15.493H3.1a1.472,1.472,0,0,0,.541,1.178,1.992,1.992,0,0,0,1.332.457,2,2,0,0,0,1.419-.479,1.654,1.654,0,0,0,.514-1.27q0-1.916-2.109-1.916H3.454Z" transform="translate(322.196 3289.915)" fill="#fff"/>
    </g>
  </g>
</svg>
